assets/icons/TelegramGreyIcon.svg

<?xml version="1.0" encoding="UTF-8"?> <svg xmlns="http://www.w3.org/2000/svg" width="100" height="100" viewBox="0 0 100 100" fill="none"> <path d="M70.7373 29.3678C70.7373 29.3678 75.3626 27.5643 74.9772 31.9444C74.8487 33.748 73.6924 40.0605 72.793 46.8883L69.7094 67.1142C69.7094 67.1142 69.4525 70.0772 67.1398 70.5925C64.827 71.1078 61.3581 68.789 60.7156 68.2736C60.2017 67.8872 51.0795 62.0899 47.8674 59.2557C46.968 58.4828 45.9401 56.9368 47.9958 55.1332L61.4866 42.2506C63.0284 40.7047 64.5701 37.0975 58.146 41.4776L40.1585 53.7162C40.1585 53.7162 38.1027 55.0044 34.2483 53.845L25.8969 51.2685C25.8969 51.2685 22.8133 49.3361 28.0811 47.4036C40.9294 41.3487 56.7328 35.165 70.7373 29.3678Z" fill="#31373E"></path> <rect x="1" y="1" width="98" height="98" stroke="#31373E" stroke-width="2"></rect> </svg>

<svg xmlns="http://www.w3.org/2000/svg" width="100" height="100" fill="none"><path d="M70.737 29.368s4.626-1.804 4.24 2.576c-.128 1.804-1.285 8.116-2.184 14.944l-3.084 20.226s-.257 2.963-2.57 3.478c-2.312.516-5.78-1.803-6.423-2.318-.514-.387-9.636-6.184-12.849-9.018-.899-.773-1.927-2.32.129-4.123l13.49-12.882c1.542-1.546 3.084-5.154-3.34-.773L40.158 53.716s-2.055 1.288-5.91.129l-8.351-2.576s-3.084-1.933 2.184-3.865c12.848-6.055 28.652-12.239 42.656-18.036Z" fill="#31373E"/><path stroke="#31373E" stroke-width="2" d="M1 1h98v98H1z"/></svg>
